X:123
T:Ciorsdan Mh\'or
R:Strathspey
B:The Athole Collection
M:C
L:1/8
K:E Minor
B|e>fg>e d>B (3Bcd|c>A (3ABc d>BB>d|e>fg>e d>B (3Bcd|
c>AB>G E2EE:|
D|G>AB>c d>B (3Bcd|c>A (3ABc d>BB>A|G>AB>c d>B (3Bcd|
c>AB>G E2 E>F|G>AB>c d>B (3Bcd|c>A (3ABc d>BB>A|
G>AB>c d>B (3Bcd|c>AB>^d e2 ef||

